dist/svg/edit.svg

<!-- Generated by Trend Micro Style Portal -->
<svg version="1.1" xmlns="http://www.w3.org/2000/svg" width="16" height="16" viewBox="0 0 16 16">
  <title>edit</title>
  <path fill="rgb(34,34,34)" d="M2.050 11.12l-1.050 3.88 3.88-1.050 8.42-8.42-2.83-2.83zM4.22 13.29l-2.22 0.71 0.72-2.23z"></path>
  <path fill="rgb(34,34,34)" d="M11.89 1.28l-0.71 0.72 2.82 2.82 0.71-0.71c0.18-0.181 0.291-0.43 0.291-0.705s-0.111-0.524-0.291-0.705l-1.41-1.42c-0.181-0.18-0.43-0.291-0.705-0.291s-0.524 0.111-0.705 0.291l0-0z"></path>
</svg>

<svg width="16" height="16" viewBox="0 0 16 16" fill="rgb(34, 34, 34)" xmlns="http://www.w3.org/2000/svg"><title>edit</title><path d="M2.05 11.12L1 15L4.88 13.95L13.3 5.53L10.47 2.7L2.05 11.12ZM4.22 13.29L2 14L2.72 11.77L4.22 13.29Z" fill="rgb(34, 34, 34)" fill-opacity="1.00"/><path d="M11.89 1.28L11.18 2L14 4.82L14.71 4.11C14.89 3.929 15.001 3.68 15.001 3.405C15.001 3.13 14.89 2.881 14.71 2.7L13.3 1.28C13.119 1.1 12.87 0.989 12.595 0.989C12.32 0.989 12.071 1.1 11.89 1.28Z" fill="rgb(34, 34, 34)" fill-opacity="1.00"/></svg>
